la/aws.svg

<svg xmlns="http://www.w3.org/2000/svg" viewBox="0 0 32 32" height="1em" width="1em">
  <path d="M 6.5839844 9.0097656 C 5.2239844 9.0097656 3.8432813 9.5400781 3.6132812 9.8300781 C 3.5532812 9.9500781 3.4141406 10.919922 3.7441406 10.919922 C 3.8541406 10.919922 3.9046094 10.939062 4.2246094 10.789062 C 5.4246094 10.319062 6.1849219 10.330078 6.2949219 10.330078 C 7.6449219 10.200078 8.4246875 11.120547 8.3046875 12.310547 L 8.3046875 13.009766 C 7.1646875 12.739766 6.5133594 12.730469 6.1933594 12.730469 C 4.5333594 12.630469 3 13.505688 3 15.429688 C 3 17.539687 4.8832812 17.990937 5.6132812 17.960938 C 6.7032812 17.970938 7.7435937 17.480859 8.4335938 16.630859 C 8.9835938 17.860859 9.33375 17.779297 9.34375 17.779297 C 9.44375 17.779297 9.5235156 17.739453 9.6035156 17.689453 L 10.173828 17.289062 C 10.273828 17.229063 10.353281 17.129766 10.363281 17.009766 C 10.353281 16.719766 9.8330469 16.269766 9.8730469 15.259766 L 9.8730469 12.140625 C 9.9330469 11.280625 9.6542187 10.439062 9.0742188 9.7890625 C 8.3842188 9.2090625 7.4739844 8.9297656 6.5839844 9.0097656 z M 25.957031 9.0097656 C 23.957031 9.0097656 22.807891 10.259297 22.837891 11.529297 C 22.837891 13.269297 24.596875 13.820859 24.796875 13.880859 C 26.486875 14.410859 26.7175 14.430078 27.1875 14.830078 C 27.5875 15.240078 27.537266 16.040625 26.947266 16.390625 C 26.777266 16.490625 26.046484 16.929844 24.396484 16.589844 C 23.846484 16.479844 23.557422 16.350156 23.107422 16.160156 C 22.987422 16.120156 22.707031 16.049922 22.707031 16.419922 L 22.707031 16.910156 C 22.707031 17.140156 22.846641 17.349219 23.056641 17.449219 C 24.106641 17.979219 25.366719 18 25.636719 18 C 25.676719 18 27.976094 18.001219 28.746094 16.449219 C 28.905094 16.129219 29.316875 14.960937 28.546875 13.960938 C 27.906875 13.210938 27.356797 13.130859 25.716797 12.630859 C 25.576797 12.590859 24.366953 12.279687 24.376953 11.429688 C 24.316953 10.339688 25.797422 10.280781 26.107422 10.300781 C 27.357422 10.280781 27.976406 10.749297 28.316406 10.779297 C 28.466406 10.779297 28.537109 10.690234 28.537109 10.490234 L 28.537109 10.029297 C 28.547109 9.9192969 28.507266 9.8107031 28.447266 9.7207031 C 28.047266 9.2007031 26.517031 9.0097656 25.957031 9.0097656 z M 10.777344 9.2597656 C 10.667344 9.2797656 10.587422 9.39 10.607422 9.5 C 10.627422 9.63 10.647266 9.760625 10.697266 9.890625 L 12.9375 17.279297 C 12.9875 17.519297 13.146094 17.780234 13.496094 17.740234 L 14.316406 17.740234 C 14.816406 17.790234 14.886484 17.309766 14.896484 17.259766 L 16.367188 11.099609 L 17.857422 17.269531 C 17.867422 17.319531 17.937734 17.8 18.427734 17.75 L 19.257812 17.75 C 19.617812 17.79 19.787891 17.529062 19.837891 17.289062 C 22.357891 9.1790625 22.187031 9.7303906 22.207031 9.6503906 C 22.247031 9.2303906 22.006797 9.2595313 21.966797 9.2695312 L 21.076172 9.2695312 C 20.626172 9.2195313 20.537578 9.6304688 20.517578 9.7304688 L 18.857422 16.140625 L 17.357422 9.7304688 C 17.287422 9.2404687 16.887109 9.2595313 16.787109 9.2695312 L 16.017578 9.2695312 C 15.577578 9.2295313 15.4675 9.5804687 15.4375 9.7304688 L 13.947266 16.050781 L 12.347656 9.7304688 C 12.307656 9.5304687 12.177109 9.2197656 11.787109 9.2597656 L 10.777344 9.2597656 z M 6.5234375 13.890625 C 7.2434375 13.900625 7.8649219 14.009375 8.2949219 14.109375 C 8.2949219 14.609375 8.313125 14.889844 8.203125 15.339844 C 8.063125 15.819844 7.444375 16.690937 5.984375 16.710938 C 5.144375 16.750937 4.5945313 16.089844 4.6445312 15.339844 C 4.5945313 14.139844 5.8334375 13.840625 6.5234375 13.890625 z M 29.041016 20.001953 C 28.107641 20.014953 27.005922 20.224047 26.169922 20.810547 C 25.911922 20.989547 25.957141 21.238078 26.244141 21.205078 C 27.184141 21.092078 29.276391 20.838406 29.650391 21.316406 C 30.025391 21.794406 29.235719 23.766437 28.886719 24.648438 C 28.778719 24.911437 29.007047 25.020312 29.248047 24.820312 C 30.812047 23.510312 31.218438 20.764141 30.898438 20.369141 C 30.737937 20.171641 29.974391 19.988953 29.041016 20.001953 z M 1.2167969 21.001953 C 0.99873437 21.031953 0.9048125 21.308344 1.1328125 21.527344 C 5.0498125 25.201344 10.225656 27 15.972656 27 C 20.071656 27 24.830234 25.662578 28.115234 23.142578 C 28.658234 22.723578 28.195672 22.09575 27.638672 22.34375 C 23.955672 23.96875 19.955453 24.751953 16.314453 24.751953 C 10.918453 24.751953 5.69475 23.625406 1.46875 21.066406 C 1.37625 21.010406 1.2894844 20.991953 1.2167969 21.001953 z"/>
</svg>

<svg xmlns="http://www.w3.org/2000/svg" viewBox="0 0 32 32" height="1em" width="1em">
  <path d="M6.584 9.01c-1.36 0-2.74.53-2.97.82-.06.12-.2 1.09.13 1.09.11 0 .16.02.48-.13 1.2-.47 1.96-.46 2.07-.46 1.35-.13 2.13.79 2.01 1.98v.7c-1.14-.27-1.79-.28-2.11-.28-1.66-.1-3.194.776-3.194 2.7 0 2.11 1.883 2.56 2.613 2.53 1.09.01 2.13-.48 2.82-1.33.55 1.23.9 1.15.91 1.15.1 0 .18-.04.26-.09l.57-.4c.1-.06.18-.16.19-.28-.01-.29-.53-.74-.49-1.75v-3.12a3.179 3.179 0 0 0-.799-2.35 3.42 3.42 0 0 0-2.49-.78zm19.373 0c-2 0-3.15 1.25-3.12 2.52 0 1.74 1.76 2.29 1.96 2.35 1.69.53 1.92.55 2.39.95.4.41.35 1.21-.24 1.56-.17.1-.9.54-2.55.2-.55-.11-.84-.24-1.29-.43-.12-.04-.4-.11-.4.26v.49c0 .23.14.44.35.54 1.05.53 2.31.55 2.58.55.04 0 2.34.001 3.11-1.55.158-.32.57-1.49-.2-2.49-.64-.75-1.19-.83-2.83-1.33-.14-.04-1.35-.35-1.34-1.2-.06-1.09 1.42-1.15 1.73-1.13 1.25-.02 1.87.45 2.21.48.15 0 .22-.09.22-.29v-.46a.487.487 0 0 0-.09-.31c-.4-.52-1.93-.71-2.49-.71zm-15.18.25c-.11.02-.19.13-.17.24.02.13.04.26.09.39l2.24 7.39c.05.24.21.5.56.46h.82c.5.05.57-.43.58-.48l1.47-6.16 1.49 6.17c.01.05.08.53.57.48h.83c.36.04.53-.22.58-.46 2.52-8.11 2.35-7.56 2.37-7.64.04-.42-.2-.39-.24-.38h-.89c-.45-.05-.54.36-.56.46l-1.66 6.41-1.5-6.41c-.07-.49-.47-.47-.57-.46h-.77c-.44-.04-.55.31-.58.46l-1.49 6.32-1.6-6.32c-.04-.2-.17-.51-.56-.47h-1.01zm-4.254 4.63c.72.01 1.342.12 1.772.22 0 .5.018.78-.092 1.23-.14.48-.759 1.35-2.219 1.37-.84.04-1.39-.62-1.34-1.37-.05-1.2 1.19-1.5 1.88-1.45zm22.518 6.112c-.933.013-2.035.222-2.871.809-.258.179-.213.427.074.394.94-.113 3.032-.367 3.406.111.375.478-.414 2.45-.763 3.332-.108.263.12.372.361.172 1.564-1.31 1.97-4.056 1.65-4.45-.16-.198-.924-.381-1.857-.368zm-27.824 1c-.218.03-.312.306-.084.525C5.05 25.201 10.226 27 15.973 27c4.099 0 8.857-1.337 12.142-3.857.543-.42.08-1.047-.476-.8-3.683 1.626-7.684 2.409-11.325 2.409-5.396 0-10.62-1.127-14.845-3.686a.39.39 0 0 0-.252-.064z"/>
</svg>
